source/img/icon/refresh-icon.svg

<svg width="17" height="17" viewBox="0 0 17 17" fill="none" xmlns="http://www.w3.org/2000/svg">
<g clip-path="url(#clip0)">
<path d="M14.5713 0C14.236 0 13.9642 0.271827 13.9642 0.607154V2.82503C10.8384 -0.201211 5.85118 -0.120456 2.82494 3.00532C1.39875 4.47843 0.603121 6.4496 0.60707 8.49998C0.60707 8.83531 0.878897 9.10714 1.21422 9.10714C1.54955 9.10714 1.82134 8.83531 1.82134 8.49998C1.82209 4.81152 4.81275 1.822 8.50125 1.82274C10.3745 1.8231 12.1615 2.61019 13.4263 3.99195L10.7367 4.88868C10.4181 4.99466 10.2458 5.33877 10.3517 5.65731C10.4577 5.97585 10.8018 6.14821 11.1204 6.04223L14.7632 4.82796C15.0119 4.74514 15.1793 4.51205 15.1785 4.24997V0.607119C15.1785 0.271827 14.9067 0 14.5713 0Z" fill="white"/>
<path d="M15.7856 7.89287C15.4503 7.89287 15.1785 8.16469 15.1785 8.50002C15.1777 12.1885 12.1871 15.178 8.49857 15.1772C6.62531 15.1769 4.83835 14.3898 3.57353 13.008L6.26316 12.1113C6.58169 12.0053 6.75405 11.6612 6.64808 11.3427C6.5421 11.0241 6.19798 10.8518 5.87945 10.9578L2.23659 12.172C1.98792 12.2549 1.82047 12.4879 1.82129 12.75V16.3929C1.82129 16.7282 2.09312 17 2.42845 17C2.76377 17 3.0356 16.7282 3.0356 16.3929V14.175C6.16141 17.2012 11.1486 17.1205 14.1748 13.9947C15.601 12.5216 16.3967 10.5504 16.3927 8.50002C16.3928 8.16469 16.121 7.89287 15.7856 7.89287Z" fill="white"/>
</g>
<defs>
<clipPath id="clip0">
<rect width="17" height="17" fill="white"/>
</clipPath>
</defs>
</svg>

<svg width="17" height="17" fill="none" xmlns="http://www.w3.org/2000/svg"><g clip-path="url(#clip0)" fill="#fff"><path d="M14.571 0a.607.607 0 0 0-.607.607v2.218A7.878 7.878 0 0 0 .607 8.5a.607.607 0 1 0 1.214 0 6.679 6.679 0 0 1 11.605-4.508l-2.69.897a.608.608 0 1 0 .384 1.153l3.643-1.214a.607.607 0 0 0 .415-.578V.607A.607.607 0 0 0 14.572 0zm1.215 7.893a.607.607 0 0 0-.607.607 6.679 6.679 0 0 1-11.605 4.508l2.69-.897a.608.608 0 0 0-.385-1.153l-3.642 1.214a.607.607 0 0 0-.416.578v3.643a.607.607 0 0 0 1.215 0v-2.218A7.878 7.878 0 0 0 16.393 8.5a.607.607 0 0 0-.607-.607z"/></g><defs><clipPath id="clip0"><path fill="#fff" d="M0 0h17v17H0z"/></clipPath></defs></svg>
